X:1
T:Win One
T:Win One
T:Ira Bishop Wilson
T:F. Q. Detweiler, 1920
T:Public Domain Courtesy of the Cyber Hymnal™
C:Ira Bishop Wilson
Z:Public Domain
Z:Courtesy of the Cyber Hymnal™
%%score ( 1 2 ) ( 3 4 )
L:1/8
Q:1/4=90
M:6/8
K:Bb
V:1 treble 
V:2 treble 
V:3 bass 
V:4 bass 
V:1
 [B,D][B,D][B,D] [B,D][CE][DF] | [EG][EG][EG] [DF]3 | [EG][EG][EG] [=EG][EA][EB] | [Fd]3 [Fc]3 | %4
w: 1.~Out in the dark- ness of|sin there are souls|Wan- dering in woe and in|sad- ness;|
w: 2.~Ma- ny have wan- dered a-|far from the fold,|Long has the good Shep- herd|sought them;|
w: 3.~Tell them the pro- mise that|Je- sus has made,|Sin crim- son shall be for-|giv- en;|
 [FB][FB][FB] [FB][Fc][Fd] | [EG][EG][EG] (!fermata!A2 G) | [DF][DG][DA] [FB][Fc][Fd] | %7
w: Will you not hast- en to|tell them of Christ, *|Turn- ing their grief in- to|
w: Go with the sto- ry of|Christ’s sac- ri- fice, *|Who with His pre- cious blood|
w: Car- ry the mes- sage, ere|it is too late, *|Win them for Christ and for|
 [Ec]3 [DB]3 ||"^Refrain" !>![Ge]3 !>![EG]2 z | !>![DF]3 !>![Fd]2 z | [Fc]3 [=EG][EA][EB] | %11
w: glad- ness.||||
w: bought them.|Win one!|win one!|Back in- to the|
w: Hea- ven.||||
 [Fd]2 [Fc] c3 | [DB][EB][FB] [GB][FA][EG] | [DF][FB][Fc] !fermata![_Ad]2 [Ge] | %14
w: |||
w: nar- row way;|Je- sus will help you the|lost ones to find, Win|
w: |||
 [Ge][Gd][Gc] !fermata![FB]2 [EA] | [DB]6 |] %16
w: ||
w: some- one for Him to-|day.|
w: ||
V:2
 x6 | x6 | x6 | x6 | x6 | x3 ^C3 | x6 | x6 || x6 | x6 | x6 | x3 (F2 E) | x6 | x6 | x6 | x6 |] %16
V:3
 [B,,F,][B,,F,][B,,F,] [B,,F,][B,,F,][B,,B,] | [E,B,][E,B,][E,B,] [B,,B,]3 | %2
 [E,B,][E,B,][E,B,] [C,B,][C,A,][C,G,] | [F,B,]3 [F,A,]3 | [D,B,][D,B,][D,B,] [D,B,][C,A,][B,,B,] | %5
 [E,B,][E,B,][E,B,] !fermata![=E,B,]3 | [F,B,][F,B,][F,B,] [F,D][F,C][F,B,] | [F,A,]3 [B,,B,]3 || %8
 !>![E,B,]3 !>![E,B,]2 z | B,3 !>![B,,B,]2 z | [C,A,]3 [C,B,][C,A,][C,G,] | %11
 [F,B,]2 [F,A,] [F,A,]3 | [B,,F,][C,F,][D,B,] [E,B,][E,B,][E,B,] | %13
 B,[B,D][B,E] !fermata![B,F]2 [CE] | [C,C][D,=B,][E,C] !fermata![D,D]2 [F,C] | [B,,B,]6 |] %16
V:4
 x6 | x6 | x6 | x6 | x6 | x6 | x6 | x6 || x6 | B,3 x3 | x6 | x6 | x6 | B, x5 | x6 | x6 |] %16

